icons/caret-double-rightB-1.svg

<svg width="24" height="24" viewBox="0 0 24 24" fill="none" xmlns="http://www.w3.org/2000/svg">
<path d="M6.11252 16.0719L10.0125 12.1719C10.1125 12.0719 10.1125 11.8719 10.0125 11.8719L6.11252 7.97188C5.91252 7.77188 5.71252 7.97188 5.71252 8.17188V15.8719C5.71252 16.0719 5.91252 16.1719 6.11252 16.0719Z" fill="black"/>
<path fill-rule="evenodd" clip-rule="evenodd" d="M6.06477 7.14715C6.31046 7.17991 6.50463 7.30328 6.64285 7.44149L10.4516 11.2502C10.5603 11.3204 10.6469 11.413 10.7075 11.5116C10.8167 11.6889 10.8375 11.8683 10.8375 11.9843C10.8375 12.2136 10.7547 12.4903 10.5428 12.7022L6.55679 16.6882L6.44793 16.7426C6.17121 16.881 5.82046 16.9143 5.5021 16.7551C5.16592 16.587 4.96252 16.2479 4.96252 15.8718V8.17182C4.96252 7.85335 5.11234 7.5039 5.42149 7.29779C5.59083 7.18489 5.81523 7.11388 6.06477 7.14715ZM6.46252 9.38249L9.10185 12.0218L6.46252 14.6612V9.38249Z" fill="black"/>
<path d="M14.3125 16.0719L18.2125 12.1719C18.3125 12.0719 18.3125 11.8719 18.2125 11.8719L14.3125 7.97188C14.1125 7.77188 13.9125 7.97188 13.9125 8.17188V15.8719C13.9125 16.0719 14.2125 16.1719 14.3125 16.0719Z" fill="black"/>
<path fill-rule="evenodd" clip-rule="evenodd" d="M14.2648 7.14715C14.5105 7.17991 14.7046 7.30328 14.8429 7.44149L18.6516 11.2502C18.7603 11.3204 18.8469 11.413 18.9075 11.5116C19.0167 11.6889 19.0375 11.8683 19.0375 11.9843C19.0375 12.2136 18.9547 12.4903 18.7429 12.7022L14.8429 16.6022C14.6398 16.8052 14.3936 16.8545 14.2356 16.8604C14.0692 16.8665 13.9122 16.8305 13.7796 16.7737C13.5441 16.6727 13.1625 16.3899 13.1625 15.8718V8.17182C13.1625 7.85335 13.3123 7.5039 13.6215 7.29779C13.7908 7.18489 14.0152 7.11388 14.2648 7.14715ZM14.6625 9.38249V14.6612L17.3019 12.0218L14.6625 9.38249Z" fill="black"/>
</svg>

<svg xmlns="http://www.w3.org/2000/svg" fill="none" viewBox="0 0 24 24">
  <path fill="#000" d="m6.113 16.072 3.9-3.9c.1-.1.1-.3 0-.3l-3.9-3.9c-.2-.2-.4 0-.4.2v7.7c0 .2.2.3.4.2Z"/>
  <path fill="#000" fill-rule="evenodd" d="M6.065 7.147c.245.033.44.156.578.294l3.809 3.81a.83.83 0 0 1 .255.26.9.9 0 0 1 .13.473c0 .23-.082.506-.294.718l-3.986 3.986-.11.055a1.056 1.056 0 0 1-.945.012.977.977 0 0 1-.54-.883v-7.7c0-.319.15-.668.46-.874a.934.934 0 0 1 .643-.15Zm.398 2.235 2.639 2.64-2.64 2.64v-5.28Z" clip-rule="evenodd"/>
  <path fill="#000" d="m14.313 16.072 3.9-3.9c.1-.1.1-.3 0-.3l-3.9-3.9c-.2-.2-.4 0-.4.2v7.7c0 .2.3.3.4.2Z"/>
  <path fill="#000" fill-rule="evenodd" d="M14.265 7.147c.245.033.44.156.578.294l3.809 3.81a.83.83 0 0 1 .255.26.9.9 0 0 1 .13.473c0 .23-.082.506-.294.718l-3.9 3.9a.902.902 0 0 1-.607.258 1.066 1.066 0 0 1-.456-.086c-.236-.101-.617-.384-.617-.902v-7.7c0-.319.15-.668.458-.874a.934.934 0 0 1 .644-.15Zm.397 2.235v5.28l2.64-2.64-2.64-2.64Z" clip-rule="evenodd"/>
</svg>
